!!!SOCIAL_FUNCTION:	bird dance songs
!!!PDT:	1932
!!!OTL: No_106_Song_at_About_Midnight_(d).krn
!!!REG: Southwest
!!!LANG: Non-Tone
!!!LING_GROUP: Yuman-Cochimi
**kern	**kern
*staff2	*staff1
=1-	=1-
*clefF4	*clefF4
*k[f#c#]	*k[f#c#]
*M3/4	*M3/4
2r	2r
8.r	8.r
16GG/	16F#\
=2	=2
8GG/L	8.A\L
8GG/J	.
.	16F#\Jk
8GG/	8.A\L
16r	.
16GG/	16F#\Jk
8GG/L	8.A\L
8GG/J	.
.	16F#\Jk
=3||	=3||
*M2/4	*M2/4
8GG/	8B\L
16r	8A\J
16GG/	.
8GG/L	8A\
8GG/J	8r
=4	=4
8GG/	8.F#\L
16r	.
16GG/	16A\Jk
8GG/L	8.F#\L
8GG/J	.
.	16A\Jk
=5	=5
8GG/	8.B\L
16r	.
16GG/	16A\Jk
8GG/L	8.A\L
8GG/J	.
.	16F#\Jk
=6||	=6||
*M3/4	*M3/4
8GG/L	8.A\L
8GG/J	.
.	16A\Jk
8GG/	4A\
16r	.
16GG/	.
8GG/L	8.r
8GG/J	.
.	16F#\
=7	=7
8GG/L	8.F#\L
8GG/J	.
.	16A\Jk
8GG/	8.A\L
16r	.
16GG/	16F#\Jk
8GG/L	8.A\L
8GG/J	.
.	16F#\Jk
=8||	=8||
*M2/4	*M2/4
8GG/	8.A\L
16r	.
16GG/	16A\Jk
8GG/L	8A\
8GG/J	8r
=9	=9
8GG/	8.F#\L
16r	.
16GG/	16A\Jk
8GG/L	8.F#\L
8GG/J	.
.	16A\Jk
=10	=10
8GG/	8.B\L
16r	.
16GG/	16A\Jk
8GG/L	8.A\L
8GG/J	.
.	16F#\Jk
=11	=11
*M3/4	*M3/4
8GG/L	8.A\L
8GG/J	.
.	16A\Jk
8GG/	4A\
16r	.
16GG/	.
8GG/L	8.r
8GG/J	.
.	16A\
=12	=12
8GG/L	8.A\L
8GG/J	.
.	16F#\Jk
8GG/	8.A\L
16r	.
16GG/	16F#\Jk
8GG/L	8.A\L
8GG/J	.
.	16F#\Jk
=13||	=13||
*M2/4	*M2/4
8GG/	8.B\L
16r	.
16GG/	16A\Jk
8GG/L	8A\
8GG/J	8r
=14	=14
8GG/	8.F#\L
16r	.
16GG/	16A\Jk
8GG/L	8.F#\L
8GG/J	.
.	16A\Jk
=15	=15
8GG/	8.B\L
16r	.
16GG/	16A\Jk
8GG/L	8.A\L
8GG/J	.
.	16F#\Jk
=16||	=16
=	=
*M3/4	*
--d	=||
*	*M3/4
8GG/L	8.A\L
8GG/J	.
.	16A\Jk
8GG/	4A\
16r	.
16GG/	.
8GG/L	4r
8GG/J	.
=17:|!	=17:|!
2.r	2.r
=18	=18
2r	4r
.	4r
8.r	8.r
16GG/	16A\
=19||	=19||
*M2/4	*M2/4
8GG/	8.A\L
16r	.
16GG/	16A\Jk
8GG/L	8A\
8GG/J	8r
=20	=20
8GG/	4e\
16r	.
16GG/	.
8GG/L	8.d\L
8GG/J	.
.	16B\Jk
=21	=21
8GG/	8.e\L
16r	.
16GG/	16B\Jk
8GG/L	8.A\L
8GG/J	.
.	16F#\Jk
=22	=22
8GG/	8.F#\L
16r	.
16GG/	16A\Jk
8GG/L	8.F#\L
8GG/J	.
.	16A\Jk
=23	=23
8GG/	8.A\L
16r	.
16GG/	16F#\Jk
8GG/L	8.A\L
8GG/J	.
.	16F#\Jk
=24	=24
8GG/	8B\L
16r	8A\J
16GG/	.
8GG/L	8A\
8GG/J	8r
=25	=25
8GG/	8.F#\L
16r	.
16GG/	16A\Jk
8GG/L	8.F#\L
8GG/J	.
.	16A\Jk
=26	=26
8GG/	8.B\L
16r	.
16GG/	16A\Jk
8GG/L	8.A\L
8GG/J	.
.	16F#\Jk
=27||	=27||
*M3/4	*M3/4
8GG/L	8.A\L
8GG/J	.
.	16A\Jk
8GG/	4A\
16r	.
16GG/	.
8GG/L	8.r
8GG/J	.
.	16F#\
=28	=28
8GG/L	8.F#\L
8GG/J	.
.	16A\Jk
8GG/	8.A\L
16r	.
16GG/	16F#\Jk
8GG/L	8.A\L
8GG/J	.
.	16F#\Jk
=29||	=29||
*M2/4	*M2/4
8GG/	8.A\L
16r	.
16GG/	16A\Jk
8GG/L	8A\
8GG/J	8r
=30	=30
8GG/	8.F#\L
16r	.
16GG/	16A\Jk
8GG/L	8.F#\L
8GG/J	.
.	16A\Jk
=31	=31
8GG/	8.B\L
16r	.
16GG/	16A\Jk
8GG/L	8.A\L
8GG/J	.
.	16F#\Jk
=32||	=32||
*M3/4	*M3/4
8GG/L	8.A\L
8GG/J	.
.	16A\Jk
8GG/	4A\
16r	.
16GG/	.
8GG/L	4r
8GG/J	.
==	==
*-	*-
